papirus/32x32/apps/frogr.svg

<svg height="32" viewBox="0 0 32 32.000001" width="32" xmlns="http://www.w3.org/2000/svg"><g transform="translate(0 -1020.3622)"><path d="m14.600001 1023.3622h2.8c3.1024 0 5.599999 2.4412 5.599999 5.4737v15.0526c0 3.0325-2.497599 5.4737-5.599999 5.4737h-2.8c-3.1024 0-5.6000008-2.4412-5.6000008-5.4737v-15.0526c0-3.0325 2.4976008-5.4737 5.6000008-5.4737z" fill="#91dd48"/><path d="m5.5 1023.8622v7h7" fill="none" stroke="#91dd48" stroke-linecap="round" stroke-linejoin="round" stroke-width="3"/><path d="m2.5 1026.8622h2" fill="none" stroke="#91dd48" stroke-linecap="round" stroke-linejoin="round" stroke-width="3"/><path d="m5.5 1023.8622v7h7" fill="none" stroke="#91dd48" stroke-linecap="round" stroke-linejoin="round" stroke-width="3"/><path d="m2.5 1026.8622h2" fill="none" stroke="#91dd48" stroke-linecap="round" stroke-linejoin="round" stroke-width="3"/><path d="m5.5 1048.8622v-7h7" fill="none" stroke="#91dd48" stroke-linecap="round" stroke-linejoin="round" stroke-width="3"/><path d="m2.5 1045.8622h2" fill="none" stroke="#91dd48" stroke-linecap="round" stroke-linejoin="round" stroke-width="3"/><path d="m26.5 1023.8622v7h-7" fill="none" stroke="#91dd48" stroke-linecap="round" stroke-linejoin="round" stroke-width="3"/><path d="m29.5 1026.8622h-2" fill="none" stroke="#91dd48" stroke-linecap="round" stroke-linejoin="round" stroke-width="3"/><path d="m26.5 1048.8622v-7h-7" fill="none" stroke="#91dd48" stroke-linecap="round" stroke-linejoin="round" stroke-width="3"/><path d="m29.5 1045.8622h-2" fill="none" stroke="#91dd48" stroke-linecap="round" stroke-linejoin="round" stroke-width="3"/><path d="m1.0703125 5.9882812a1.50015 1.50015 0 0 0 1.4296875 2.0117188h1.5v-1.0214844h-1.5a1.50015 1.50015 0 0 1 -1.4296875-.9902344zm29.8593755.0019532a1.50015 1.50015 0 0 1 -1.429688.9882812h-1.5v1.0214844h1.5a1.50015 1.50015 0 0 0 1.429688-2.0097656zm-26.929688 3.4882812v1.0214844a1.50015 1.50015 0 0 0 1.5 1.5h3.5v-1.021484h-3.5a1.50015 1.50015 0 0 1 -1.5-1.5000004zm24 0a1.50015 1.50015 0 0 1 -1.5 1.5000004h-3.5v1.021484h3.5a1.50015 1.50015 0 0 0 1.5-1.5zm-21 12.5000004v1.021484h2v .525391c0 3.0325 2.497209 5.474609 5.599609 5.474609h2.800782c3.1024 0 5.599609-2.442109 5.599609-5.474609v-.525391h2v-1.021484h-2v .52539c0 3.0325-2.497209 5.47461-5.599609 5.47461h-2.800782c-3.1024 0-5.599609-2.44211-5.599609-5.47461v-.52539zm-5.9296875 3.009765a1.50015 1.50015 0 0 0 1.4296875 2.011719h1.5v-1.021484h-1.5a1.50015 1.50015 0 0 1 -1.4296875-.990235zm29.8593755.001953a1.50015 1.50015 0 0 1 -1.429688.988282h-1.5v1.021484h1.5a1.50015 1.50015 0 0 0 1.429688-2.009766zm-26.929688 2.488282v1.021484a1.50015 1.50015 0 1 0 3 0v-1.021484a1.50015 1.50015 0 1 1 -3 0zm21 0v1.021484a1.50015 1.50015 0 1 0 3 0v-1.021484a1.50015 1.50015 0 1 1 -3 0z" fill-rule="evenodd" opacity=".3" overflow="visible" transform="translate(0 1020.3622)"/><path d="m5.4765625 1.9804688a1.50015 1.50015 0 0 0 -1.4765625 1.5195312v.9785156a1.50015 1.50015 0 0 1 1.4765625-1.5195312 1.50015 1.50015 0 0 1  1.5234375 1.5195312v-.9785156a1.50015 1.50015 0 0 0 -1.5234375-1.5195312zm20.9999995 0a1.50015 1.50015 0 0 0 -1.476562 1.5195312v.9785156a1.50015 1.50015 0 0 1 1.476562-1.5195312 1.50015 1.50015 0 0 1  1.523438 1.5195312v-.9785156a1.50015 1.50015 0 0 0 -1.523438-1.5195312zm-11.876953 1.0195312c-3.1024 0-5.599609 2.4421094-5.599609 5.4746094v.5253906h-2v .9785156h2v-.5253906c0-3.0325 2.497209-5.4746094 5.599609-5.4746094h2.800782c3.1024 0 5.599609 2.4421094 5.599609 5.4746094v.5253906h2v-.9785156h-2v-.5253906c0-3.0325-2.497209-5.4746094-5.599609-5.4746094zm-12.099609 2a1.50015 1.50015 0 0 0 -1.4375 1.9902344 1.50015 1.50015 0 0 1  1.4375-1.0117188h1.5v-.9785156zm25.5 0v .9785156h1.5a1.50015 1.50015 0 0 1 1.4375 1.0097656 1.50015 1.50015 0 0 0 -1.4375-1.9882812zm-22.5 15a1.50015 1.50015 0 0 0 -1.5 1.5v.978516a1.50015 1.50015 0 0 1 1.5-1.5h3.5v-.978516zm17.5 0v .978516h3.5a1.50015 1.50015 0 0 1 1.5 1.5v-.978516a1.50015 1.50015 0 0 0 -1.5-1.5zm-20.5 4a1.50015 1.50015 0 0 0 -1.4375 1.990234 1.50015 1.50015 0 0 1  1.4375-1.011718h1.5v-.978516zm25.5 0v .978516h1.5a1.50015 1.50015 0 0 1 1.4375 1.009765 1.50015 1.50015 0 0 0 -1.4375-1.988281z" fill="#fff" fill-rule="evenodd" opacity=".2" overflow="visible" transform="translate(0 1020.3622)"/><circle cx="11" cy="1025.3622" fill="#9a48dd" r="3"/><circle cx="11" cy="1026.3622" opacity=".2" r="2"/><circle cx="11" cy="1025.3622" fill="#fff" r="2"/><g transform="translate(10)"><circle cx="11" cy="1025.3622" fill="#9a48dd" r="3"/><circle cx="11" cy="1026.3622" opacity=".2" r="2"/><circle cx="11" cy="1025.3622" fill="#fff" r="2"/></g></g></svg>

<?xml version="1.0" encoding="UTF-8" standalone="no"?>
<!-- Created with Inkscape (http://www.inkscape.org/) -->

<svg
   xmlns:dc="http://purl.org/dc/elements/1.1/"
   xmlns:cc="http://creativecommons.org/ns#"
   xmlns:rdf="http://www.w3.org/1999/02/22-rdf-syntax-ns#"
   xmlns:svg="http://www.w3.org/2000/svg"
   xmlns="http://www.w3.org/2000/svg"
   xmlns:sodipodi="http://sodipodi.sourceforge.net/DTD/sodipodi-0.dtd"
   xmlns:inkscape="http://www.inkscape.org/namespaces/inkscape"
   width="32"
   height="32"
   viewBox="0 0 32 32.000001"
   id="svg4180"
   version="1.1"
   inkscape:version="0.91 r13725"
   sodipodi:docname="frogr.svg">
  <defs
     id="defs4182" />
  <sodipodi:namedview
     id="base"
     pagecolor="#6d6d6d"
     bordercolor="#666666"
     borderopacity="1.0"
     inkscape:pageopacity="0"
     inkscape:pageshadow="2"
     inkscape:zoom="1"
     inkscape:cx="11.597254"
     inkscape:cy="15.684843"
     inkscape:document-units="px"
     inkscape:current-layer="layer1"
     showgrid="false"
     units="px"
     inkscape:window-width="1535"
     inkscape:window-height="876"
     inkscape:window-x="65"
     inkscape:window-y="24"
     inkscape:window-maximized="1" />
  <metadata
     id="metadata4185">
    <rdf:RDF>
      <cc:Work
         rdf:about="">
        <dc:format>image/svg+xml</dc:format>
        <dc:type
           rdf:resource="http://purl.org/dc/dcmitype/StillImage" />
        <dc:title></dc:title>
      </cc:Work>
    </rdf:RDF>
  </metadata>
  <g
     inkscape:label="Layer 1"
     inkscape:groupmode="layer"
     id="layer1"
     transform="translate(0,-1020.3622)">
    <path
       style="opacity:1;fill:#91dd48;fill-opacity:1;stroke:none;stroke-width:1;stroke-linecap:round;stroke-linejoin:round;stroke-miterlimit:4;stroke-dasharray:none;stroke-opacity:1"
       d="m 14.600001,1023.3622 2.8,0 c 3.1024,0 5.599999,2.4412 5.599999,5.4737 l 0,15.0526 c 0,3.0325 -2.497599,5.4737 -5.599999,5.4737 l -2.8,0 c -3.1024,0 -5.6000008,-2.4412 -5.6000008,-5.4737 l 0,-15.0526 c 0,-3.0325 2.4976008,-5.4737 5.6000008,-5.4737 z"
       id="rect4728"
       inkscape:connector-curvature="0" />
    <g
       id="g5368">
      <path
         sodipodi:nodetypes="ccc"
         inkscape:connector-curvature="0"
         id="path4906"
         d="m 5.5,1023.8622 0,7 7,0"
         style="fill:none;fill-rule:evenodd;stroke:#91dd48;stroke-width:3;stroke-linecap:round;stroke-linejoin:round;stroke-miterlimit:4;stroke-dasharray:none;stroke-opacity:1" />
      <path
         sodipodi:nodetypes="cc"
         inkscape:connector-curvature="0"
         id="path4908"
         d="m 2.5,1026.8622 2,0"
         style="fill:none;fill-rule:evenodd;stroke:#91dd48;stroke-width:3;stroke-linecap:round;stroke-linejoin:round;stroke-miterlimit:4;stroke-dasharray:none;stroke-opacity:1" />
    </g>
    <path
       sodipodi:nodetypes="ccc"
       inkscape:connector-curvature="0"
       id="path5374"
       d="m 5.5,1023.8622 0,7 7,0"
       style="fill:none;fill-rule:evenodd;stroke:#91dd48;stroke-width:3;stroke-linecap:round;stroke-linejoin:round;stroke-miterlimit:4;stroke-dasharray:none;stroke-opacity:1" />
    <path
       sodipodi:nodetypes="cc"
       inkscape:connector-curvature="0"
       id="path5376"
       d="m 2.5,1026.8622 2,0"
       style="fill:none;fill-rule:evenodd;stroke:#91dd48;stroke-width:3;stroke-linecap:round;stroke-linejoin:round;stroke-miterlimit:4;stroke-dasharray:none;stroke-opacity:1" />
    <path
       style="fill:none;fill-rule:evenodd;stroke:#91dd48;stroke-width:3;stroke-linecap:round;stroke-linejoin:round;stroke-miterlimit:4;stroke-dasharray:none;stroke-opacity:1"
       d="m 5.5,1048.8622 0,-7 7,0"
       id="path5380"
       inkscape:connector-curvature="0"
       sodipodi:nodetypes="ccc" />
    <path
       style="fill:none;fill-rule:evenodd;stroke:#91dd48;stroke-width:3;stroke-linecap:round;stroke-linejoin:round;stroke-miterlimit:4;stroke-dasharray:none;stroke-opacity:1"
       d="m 2.5,1045.8622 2,0"
       id="path5382"
       inkscape:connector-curvature="0"
       sodipodi:nodetypes="cc" />
    <path
       style="fill:none;fill-rule:evenodd;stroke:#91dd48;stroke-width:3;stroke-linecap:round;stroke-linejoin:round;stroke-miterlimit:4;stroke-dasharray:none;stroke-opacity:1"
       d="m 26.5,1023.8622 0,7 -7,0"
       id="path5386"
       inkscape:connector-curvature="0"
       sodipodi:nodetypes="ccc" />
    <path
       style="fill:none;fill-rule:evenodd;stroke:#91dd48;stroke-width:3;stroke-linecap:round;stroke-linejoin:round;stroke-miterlimit:4;stroke-dasharray:none;stroke-opacity:1"
       d="m 29.5,1026.8622 -2,0"
       id="path5388"
       inkscape:connector-curvature="0"
       sodipodi:nodetypes="cc" />
    <path
       sodipodi:nodetypes="ccc"
       inkscape:connector-curvature="0"
       id="path5392"
       d="m 26.5,1048.8622 0,-7 -7,0"
       style="fill:none;fill-rule:evenodd;stroke:#91dd48;stroke-width:3;stroke-linecap:round;stroke-linejoin:round;stroke-miterlimit:4;stroke-dasharray:none;stroke-opacity:1" />
    <path
       sodipodi:nodetypes="cc"
       inkscape:connector-curvature="0"
       id="path5394"
       d="m 29.5,1045.8622 -2,0"
       style="fill:none;fill-rule:evenodd;stroke:#91dd48;stroke-width:3;stroke-linecap:round;stroke-linejoin:round;stroke-miterlimit:4;stroke-dasharray:none;stroke-opacity:1" />
    <path
       style="color:#000000;font-style:normal;font-variant:normal;font-weight:normal;font-stretch:normal;font-size:medium;line-height:normal;font-family:sans-serif;text-indent:0;text-align:start;text-decoration:none;text-decoration-line:none;text-decoration-style:solid;text-decoration-color:#000000;letter-spacing:normal;word-spacing:normal;text-transform:none;direction:ltr;block-progression:tb;writing-mode:lr-tb;baseline-shift:baseline;text-anchor:start;white-space:normal;clip-rule:nonzero;display:inline;overflow:visible;visibility:visible;opacity:0.3;isolation:auto;mix-blend-mode:normal;color-interpolation:sRGB;color-interpolation-filters:linearRGB;solid-color:#000000;solid-opacity:1;fill:#000000;fill-opacity:1;fill-rule:evenodd;stroke:none;stroke-width:3;stroke-linecap:round;stroke-linejoin:round;stroke-miterlimit:4;stroke-dasharray:none;stroke-dashoffset:0;stroke-opacity:1;color-rendering:auto;image-rendering:auto;shape-rendering:auto;text-rendering:auto;enable-background:accumulate"
       d="M 1.0703125 5.9882812 A 1.50015 1.50015 0 0 0 2.5 8 L 4 8 L 4 6.9785156 L 2.5 6.9785156 A 1.50015 1.50015 0 0 1 1.0703125 5.9882812 z M 30.929688 5.9902344 A 1.50015 1.50015 0 0 1 29.5 6.9785156 L 28 6.9785156 L 28 8 L 29.5 8 A 1.50015 1.50015 0 0 0 30.929688 5.9902344 z M 4 9.4785156 L 4 10.5 A 1.50015 1.50015 0 0 0 5.5 12 L 9 12 L 9 10.978516 L 5.5 10.978516 A 1.50015 1.50015 0 0 1 4 9.4785156 z M 28 9.4785156 A 1.50015 1.50015 0 0 1 26.5 10.978516 L 23 10.978516 L 23 12 L 26.5 12 A 1.50015 1.50015 0 0 0 28 10.5 L 28 9.4785156 z M 7 21.978516 L 7 23 L 9 23 L 9 23.525391 C 9 26.557891 11.497209 29 14.599609 29 L 17.400391 29 C 20.502791 29 23 26.557891 23 23.525391 L 23 23 L 25 23 L 25 21.978516 L 23 21.978516 L 23 22.503906 C 23 25.536406 20.502791 27.978516 17.400391 27.978516 L 14.599609 27.978516 C 11.497209 27.978516 9 25.536406 9 22.503906 L 9 21.978516 L 7 21.978516 z M 1.0703125 24.988281 A 1.50015 1.50015 0 0 0 2.5 27 L 4 27 L 4 25.978516 L 2.5 25.978516 A 1.50015 1.50015 0 0 1 1.0703125 24.988281 z M 30.929688 24.990234 A 1.50015 1.50015 0 0 1 29.5 25.978516 L 28 25.978516 L 28 27 L 29.5 27 A 1.50015 1.50015 0 0 0 30.929688 24.990234 z M 4 27.478516 L 4 28.5 A 1.50015 1.50015 0 1 0 7 28.5 L 7 27.478516 A 1.50015 1.50015 0 1 1 4 27.478516 z M 25 27.478516 L 25 28.5 A 1.50015 1.50015 0 1 0 28 28.5 L 28 27.478516 A 1.50015 1.50015 0 1 1 25 27.478516 z "
       transform="translate(0,1020.3622)"
       id="path5404" />
    <path
       style="color:#000000;font-style:normal;font-variant:normal;font-weight:normal;font-stretch:normal;font-size:medium;line-height:normal;font-family:sans-serif;text-indent:0;text-align:start;text-decoration:none;text-decoration-line:none;text-decoration-style:solid;text-decoration-color:#000000;letter-spacing:normal;word-spacing:normal;text-transform:none;direction:ltr;block-progression:tb;writing-mode:lr-tb;baseline-shift:baseline;text-anchor:start;white-space:normal;clip-rule:nonzero;display:inline;overflow:visible;visibility:visible;opacity:0.2;isolation:auto;mix-blend-mode:normal;color-interpolation:sRGB;color-interpolation-filters:linearRGB;solid-color:#000000;solid-opacity:1;fill:#ffffff;fill-opacity:1;fill-rule:evenodd;stroke:none;stroke-width:3;stroke-linecap:round;stroke-linejoin:round;stroke-miterlimit:4;stroke-dasharray:none;stroke-dashoffset:0;stroke-opacity:1;color-rendering:auto;image-rendering:auto;shape-rendering:auto;text-rendering:auto;enable-background:accumulate"
       d="M 5.4765625 1.9804688 A 1.50015 1.50015 0 0 0 4 3.5 L 4 4.4785156 A 1.50015 1.50015 0 0 1 5.4765625 2.9589844 A 1.50015 1.50015 0 0 1 7 4.4785156 L 7 3.5 A 1.50015 1.50015 0 0 0 5.4765625 1.9804688 z M 26.476562 1.9804688 A 1.50015 1.50015 0 0 0 25 3.5 L 25 4.4785156 A 1.50015 1.50015 0 0 1 26.476562 2.9589844 A 1.50015 1.50015 0 0 1 28 4.4785156 L 28 3.5 A 1.50015 1.50015 0 0 0 26.476562 1.9804688 z M 14.599609 3 C 11.497209 3 9 5.4421094 9 8.4746094 L 9 9 L 7 9 L 7 9.9785156 L 9 9.9785156 L 9 9.453125 C 9 6.420625 11.497209 3.9785156 14.599609 3.9785156 L 17.400391 3.9785156 C 20.502791 3.9785156 23 6.420625 23 9.453125 L 23 9.9785156 L 25 9.9785156 L 25 9 L 23 9 L 23 8.4746094 C 23 5.4421094 20.502791 3 17.400391 3 L 14.599609 3 z M 2.5 5 A 1.50015 1.50015 0 0 0 1.0625 6.9902344 A 1.50015 1.50015 0 0 1 2.5 5.9785156 L 4 5.9785156 L 4 5 L 2.5 5 z M 28 5 L 28 5.9785156 L 29.5 5.9785156 A 1.50015 1.50015 0 0 1 30.9375 6.9882812 A 1.50015 1.50015 0 0 0 29.5 5 L 28 5 z M 5.5 20 A 1.50015 1.50015 0 0 0 4 21.5 L 4 22.478516 A 1.50015 1.50015 0 0 1 5.5 20.978516 L 9 20.978516 L 9 20 L 5.5 20 z M 23 20 L 23 20.978516 L 26.5 20.978516 A 1.50015 1.50015 0 0 1 28 22.478516 L 28 21.5 A 1.50015 1.50015 0 0 0 26.5 20 L 23 20 z M 2.5 24 A 1.50015 1.50015 0 0 0 1.0625 25.990234 A 1.50015 1.50015 0 0 1 2.5 24.978516 L 4 24.978516 L 4 24 L 2.5 24 z M 28 24 L 28 24.978516 L 29.5 24.978516 A 1.50015 1.50015 0 0 1 30.9375 25.988281 A 1.50015 1.50015 0 0 0 29.5 24 L 28 24 z "
       transform="translate(0,1020.3622)"
       id="path5440" />
    <g
       id="g5355">
      <circle
         r="3"
         cy="1025.3622"
         cx="11"
         id="path4770"
         style="opacity:1;fill:#9a48dd;fill-opacity:1;stroke:none;stroke-width:4;stroke-linecap:round;stroke-linejoin:round;stroke-miterlimit:4;stroke-dasharray:none;stroke-opacity:1" />
      <circle
         r="2"
         cy="1026.3622"
         cx="11"
         id="circle5353"
         style="opacity:0.2;fill:#000000;fill-opacity:1;stroke:none;stroke-width:4;stroke-linecap:round;stroke-linejoin:round;stroke-miterlimit:4;stroke-dasharray:none;stroke-opacity:1" />
      <circle
         style="opacity:1;fill:#ffffff;fill-opacity:1;stroke:none;stroke-width:4;stroke-linecap:round;stroke-linejoin:round;stroke-miterlimit:4;stroke-dasharray:none;stroke-opacity:1"
         id="circle4774"
         cx="11"
         cy="1025.3622"
         r="2" />
    </g>
    <g
       id="g5360"
       transform="translate(10,0)">
      <circle
         style="opacity:1;fill:#9a48dd;fill-opacity:1;stroke:none;stroke-width:4;stroke-linecap:round;stroke-linejoin:round;stroke-miterlimit:4;stroke-dasharray:none;stroke-opacity:1"
         id="circle5362"
         cx="11"
         cy="1025.3622"
         r="3" />
      <circle
         style="opacity:0.2;fill:#000000;fill-opacity:1;stroke:none;stroke-width:4;stroke-linecap:round;stroke-linejoin:round;stroke-miterlimit:4;stroke-dasharray:none;stroke-opacity:1"
         id="circle5364"
         cx="11"
         cy="1026.3622"
         r="2" />
      <circle
         r="2"
         cy="1025.3622"
         cx="11"
         id="circle5366"
         style="opacity:1;fill:#ffffff;fill-opacity:1;stroke:none;stroke-width:4;stroke-linecap:round;stroke-linejoin:round;stroke-miterlimit:4;stroke-dasharray:none;stroke-opacity:1" />
    </g>
  </g>
</svg>
